modules/hawcons-filled/icons/thumb-down.svg

<?xml version="1.0" encoding="UTF-8" standalone="no"?>
<svg width="32px" height="32px" viewBox="0 0 32 32" version="1.1" xmlns="http://www.w3.org/2000/svg" xmlns:xlink="http://www.w3.org/1999/xlink" xmlns:sketch="http://www.bohemiancoding.com/sketch/ns">
    <!-- Generator: Sketch 3.0.3 (7891) - http://www.bohemiancoding.com/sketch -->
    <title>icon 7 thumb down</title>
    <desc>Created with Sketch.</desc>
    <defs></defs>
    <g id="Page-1" stroke="none" stroke-width="1" fill="none" fill-rule="evenodd" sketch:type="MSPage">
        <g id="icon-7-thumb-down" sketch:type="MSArtboardGroup" fill="#929292">
            <path d="M20.2999878,18 L27.5069036,18 C28.3361142,18 29,17.3284271 29,16.5 C29,15.6657972 28.331518,15 27.5069036,15 L24,15 L24,14 L26.5069036,14 C27.3361142,14 28,13.3284271 28,12.5 C28,11.6657972 27.331518,11 26.5069036,11 L23,11 L23,11 L23,10 L25.5069036,10 C26.3361142,10 27,9.32842712 27,8.5 C27,7.66579723 26.331518,7 25.5069036,7 L22,7 L22,6 L23.4983244,6 C24.3288106,6 25,5.32842712 25,4.5 C25,3.66579723 24.3276769,3 23.4983244,3 L19.7508378,3 L19.7508378,3 L16,3 L10,5 L4.00292933,5 C3.43788135,5 3,5.44704472 3,5.99850233 L3,17.0014977 C3,17.5525106 3.44769743,18 3.9999602,18 L10.5,18 C10.5000062,18.0000014 13.804736,18.7236852 15.3710938,21.6987305 C16.9374527,24.6737787 15.1291504,28.9999996 18,29 C21.1514893,29.0000004 21.5007324,23.5 20.2999878,18 L20.2999878,18 L20.2999878,18 Z" id="thumb-down" sketch:type="MSShapeGroup"></path>
        </g>
    </g>
</svg>

<svg width="32" height="32" xmlns="http://www.w3.org/2000/svg"><path d="M20.3 18h7.207c.83 0 1.493-.672 1.493-1.5 0-.834-.668-1.5-1.493-1.5H24v-1h2.507c.83 0 1.493-.672 1.493-1.5 0-.834-.668-1.5-1.493-1.5H23v-1h2.507C26.337 10 27 9.328 27 8.5c0-.834-.668-1.5-1.493-1.5H22V6h1.498a1.5 1.5 0 1 0 0-3H16l-6 2H4.003A.994.994 0 0 0 3 5.999V17A1 1 0 0 0 4 18h6.5s3.305.724 4.871 3.699C16.937 24.674 15.13 29 18 29c3.151 0 3.5-5.5 2.3-11z" fill="#929292" fill-rule="evenodd"/></svg>
